images/subscribe_decore.svg

<svg width="153" height="166" viewBox="0 0 153 166" fill="none" xmlns="http://www.w3.org/2000/svg">
<path d="M11.5586 152.61V154.479H0.837891V152.61H11.5586ZM7.19727 148.045V159.432H5.20996V148.045H7.19727Z" fill="#E5E5E5"/>
<path d="M46.5586 117.61V119.479H35.8379V117.61H46.5586ZM42.1973 113.045V124.432H40.21V113.045H42.1973Z" fill="#E5E5E5"/>
<path d="M77.1973 12.6104H81.5586V14.4902H77.1973V19.4316H75.1992V14.4902H70.8379V12.6104H75.1992V8.04492H77.1973V12.6104Z" fill="#E5E5E5"/>
<path d="M81.5586 47.6104V49.4795H70.8379V47.6104H81.5586ZM77.1973 43.0449V54.4316H75.21V43.0449H77.1973Z" fill="#E5E5E5"/>
<path d="M81.5586 82.6104V84.4795H70.8379V82.6104H81.5586ZM77.1973 78.0449V89.4316H75.21V78.0449H77.1973Z" fill="#6246E5"/>
<path d="M81.5586 117.61V119.479H70.8379V117.61H81.5586ZM77.1973 113.045V124.432H75.21V113.045H77.1973Z" fill="#E5E5E5"/>
<path d="M81.5586 152.61V154.479H70.8379V152.61H81.5586ZM77.1973 148.045V159.432H75.21V148.045H77.1973Z" fill="#E5E5E5"/>
<path d="M116.559 12.6104V14.4795H105.838V12.6104H116.559ZM112.197 8.04492V19.4316H110.21V8.04492H112.197Z" fill="#E5E5E5"/>
<path d="M116.559 47.6104V49.4795H105.838V47.6104H116.559ZM112.197 43.0449V54.4316H110.21V43.0449H112.197Z" fill="#E5E5E5"/>
<path d="M116.559 82.6104V84.4795H105.838V82.6104H116.559ZM112.197 78.0449V89.4316H110.21V78.0449H112.197Z" fill="#E5E5E5"/>
<path d="M116.559 117.61V119.479H105.838V117.61H116.559ZM112.197 113.045V124.432H110.21V113.045H112.197Z" fill="#E5E5E5"/>
<path d="M116.559 152.61V154.479H105.838V152.61H116.559ZM112.197 148.045V159.432H110.21V148.045H112.197Z" fill="#E5E5E5"/>
<path d="M147.197 12.6104H151.559V14.4902H147.197V19.4316H145.199V14.4902H140.838V12.6104H145.199V8.04492H147.197V12.6104Z" fill="#FF7152"/>
<path d="M147.197 47.6104H151.559V49.4902H147.197V54.4316H145.199V49.4902H140.838V47.6104H145.199V43.0449H147.197V47.6104Z" fill="#E5E5E5"/>
<path d="M151.559 82.6104V84.4795H140.838V82.6104H151.559ZM147.197 78.0449V89.4316H145.21V78.0449H147.197Z" fill="#E5E5E5"/>
<path d="M151.559 117.61V119.479H140.838V117.61H151.559ZM147.197 113.045V124.432H145.21V113.045H147.197Z" fill="#E5E5E5"/>
<path d="M151.559 152.61V154.479H140.838V152.61H151.559ZM147.197 148.045V159.432H145.21V148.045H147.197Z" fill="#E5E5E5"/>
</svg>

<svg width="153" height="166" fill="none" xmlns="http://www.w3.org/2000/svg"><path d="M11.559 152.61v1.869H.838v-1.869h10.72zm-4.362-4.565v11.387H5.21v-11.387h1.987zm39.362-30.435v1.869H35.838v-1.869h10.72zm-4.362-4.565v11.387H40.21v-11.387h1.987zm35-100.435h4.362v1.88h-4.362v4.942H75.2V14.49h-4.361v-1.88H75.2V8.045h1.998v4.565zm4.362 35v1.87H70.838v-1.87h10.72zm-4.362-4.565v11.387H75.21V43.045h1.987z" fill="#E5E5E5"/><path d="M81.559 82.61v1.87H70.838v-1.87h10.72zm-4.362-4.565v11.387H75.21V78.045h1.987z" fill="#6246E5"/><path d="M81.559 117.61v1.869H70.838v-1.869h10.72zm-4.362-4.565v11.387H75.21v-11.387h1.987zm4.362 39.565v1.869H70.838v-1.869h10.72zm-4.362-4.565v11.387H75.21v-11.387h1.987zM116.559 12.61v1.87h-10.721v-1.87h10.721zm-4.362-4.565v11.387h-1.987V8.045h1.987zm4.362 39.565v1.87h-10.721v-1.87h10.721zm-4.362-4.565v11.387h-1.987V43.045h1.987zm4.362 39.565v1.87h-10.721v-1.87h10.721zm-4.362-4.565v11.387h-1.987V78.045h1.987zm4.362 39.565v1.869h-10.721v-1.869h10.721zm-4.362-4.565v11.387h-1.987v-11.387h1.987zm4.362 39.565v1.869h-10.721v-1.869h10.721zm-4.362-4.565v11.387h-1.987v-11.387h1.987z" fill="#E5E5E5"/><path d="M147.197 12.61h4.362v1.88h-4.362v4.942h-1.998V14.49h-4.361v-1.88h4.361V8.045h1.998v4.565z" fill="#FF7152"/><path d="M147.197 47.61h4.362v1.88h-4.362v4.942h-1.998V49.49h-4.361v-1.88h4.361v-4.565h1.998v4.565zm4.362 35v1.87h-10.721v-1.87h10.721zm-4.362-4.565v11.387h-1.987V78.045h1.987zm4.362 39.565v1.869h-10.721v-1.869h10.721zm-4.362-4.565v11.387h-1.987v-11.387h1.987zm4.362 39.565v1.869h-10.721v-1.869h10.721zm-4.362-4.565v11.387h-1.987v-11.387h1.987z" fill="#E5E5E5"/></svg>
